astro/public/img/logo/fa_logo_purple_orange.svg

<?xml version="1.0" encoding="UTF-8"?>
<svg width="200px" height="200px" viewBox="0 0 200 200" version="1.1" xmlns="http://www.w3.org/2000/svg" xmlns:xlink="http://www.w3.org/1999/xlink">
    <title>fa_logo_purple_orange</title>
    <g id="fa_logo_purple_orange" stroke="none" stroke-width="1" fill="none" fill-rule="evenodd">
        <g id="logo-white-only-copy" transform="translate(10.000000, 6.000000)" fill-rule="nonzero">
            <path d="M50.5781995,165.305574 C44.0200061,161.534105 38.035637,156.841928 32.8074808,151.37205 C31.2911918,153.275097 29.4376481,154.88249 27.3395673,156.113825 C26.1807189,156.768525 24.9596042,157.306147 23.6942917,157.718734 C51.9805732,188.626469 97.8178848,195.963442 134.328407,175.42744 C136.054841,174.435545 137.119397,172.595605 137.119397,170.603596 C137.119397,168.611586 136.054841,166.771647 134.328407,165.779751 L134.328407,165.779751 C132.652953,164.774032 130.568512,164.73927 128.860494,165.688563 C104.537441,179.432136 74.76578,179.28648 50.5781995,165.305574 Z" id="Path" fill="#334155"></path>
            <path d="M50.5599731,28.5965512 C57.1202651,24.8105635 64.1920016,21.9911842 71.5567608,20.2254944 C70.6416327,17.902334 70.1717162,15.4275672 70.1715561,12.9304559 C70.1749808,11.5831912 70.3092723,10.2394494 70.5725364,8.91818465 C29.6921847,18.0012455 0.452683111,54.0668548 0,95.9662323 C0.00651937331,97.9567548 1.07211666,99.7931143 2.79653921,100.78555 C4.52096175,101.777985 6.64312182,101.776235 8.36590759,100.780958 L8.36590759,100.780958 C10.0574589,99.8299787 11.1186776,98.053252 11.1545435,96.1121331 C11.4525876,68.2230405 26.4310255,42.5596241 50.5599731,28.5965512 Z" id="Path" fill="#334155"></path>
            <path d="M168.867394,96.9510625 C168.86486,104.527381 167.772219,112.06387 165.623099,119.328593 C168.074021,119.688049 170.435738,120.504642 172.585575,121.735956 C173.739196,122.396433 174.831103,123.159408 175.848097,124.015656 C188.394979,84.0481843 171.784319,40.6978963 135.750065,19.3683274 C134.024235,18.4636376 131.951695,18.5256793 130.283001,19.5319846 C128.614306,20.5382899 127.591372,22.3429722 127.584348,24.2924784 L127.584348,24.2924784 C127.564419,26.2297966 128.569632,28.0333569 130.227472,29.0342535 C154.187419,43.2594533 168.873975,69.0737916 168.867394,96.9510625 Z" id="Path" fill="#334155"></path>
            <path d="M90.0200819,59.4180847 C105.193071,59.4107119 118.87613,68.5506485 124.687691,82.5751739 C130.499252,96.5996994 127.294565,112.746291 116.568248,123.484428 C105.841931,134.222565 89.7068308,137.437071 75.6881092,131.62875 C61.6693875,125.820429 52.528422,112.133392 52.528422,96.9510625 C52.5484978,76.2376185 69.3193912,59.4482446 90.0200819,59.4180847 M90.0200819,48.2749143 C63.1535256,48.2749143 41.3738785,70.0679701 41.3738785,96.9510625 C41.3738785,123.834155 63.1535256,145.627207 90.0200819,145.627207 C116.886638,145.627207 138.666289,123.834155 138.666289,96.9510625 C138.671123,84.0398631 133.547466,71.6560827 124.423484,62.5264854 C115.299502,53.396888 102.92334,48.2700775 90.0200819,48.2749143 Z" id="Shape" fill="#334155"></path>
            <ellipse id="Oval" fill="#F58320" cx="90.0018555" cy="12.9851686" rx="12.9771813" ry="12.9851686"></ellipse>
            <ellipse id="Oval" fill="#F58320" cx="17.3332857" cy="138.915772" rx="12.9771813" ry="12.9851686"></ellipse>
            <ellipse id="Oval" fill="#F58320" cx="162.670425" cy="138.915772" rx="12.9771813" ry="12.9851686"></ellipse>
            <path d="M100.77371,88.0693531 C100.780821,82.8324377 97.0189591,78.3508683 91.8626607,77.4535484 C86.7063624,76.5562286 81.6532446,79.5037796 79.8929899,84.4356172 C78.1327351,89.3674549 80.176599,94.8511556 84.7344322,97.42524 L81.3443259,114.623293 C81.2334429,115.166262 81.375309,115.730222 81.7298735,116.155962 C82.084438,116.581701 82.6132298,116.823025 83.1669637,116.81218 L96.964332,116.81218 C97.518066,116.823025 98.0468577,116.581701 98.4014222,116.155962 C98.7559868,115.730222 98.8978529,115.166262 98.7869698,114.623293 L95.3786371,97.42524 C98.7271604,95.5039142 100.787053,91.9317006 100.77371,88.0693531 L100.77371,88.0693531 Z" id="Path" fill="#F58320"></path>
        </g>
    </g>
</svg>

<svg xmlns="http://www.w3.org/2000/svg" width="200" height="200"><g fill="none" transform="translate(10 6)"><path fill="#334155" d="M50.578 165.306a79.2 79.2 0 0 1-17.77-13.934 19.816 19.816 0 0 1-5.468 4.742 20.043 20.043 0 0 1-3.646 1.605c28.287 30.907 74.124 38.244 110.634 17.708a5.563 5.563 0 0 0 0-9.647 5.465 5.465 0 0 0-5.468-.091 78.878 78.878 0 0 1-78.282-.383ZM50.56 28.597a78.728 78.728 0 0 1 20.997-8.372 19.908 19.908 0 0 1-1.385-7.295c.003-1.347.137-2.69.4-4.012C29.693 18.001.453 54.067 0 95.966a5.581 5.581 0 0 0 2.797 4.82 5.574 5.574 0 0 0 5.569-.005 5.472 5.472 0 0 0 2.789-4.669C11.453 68.223 26.43 42.56 50.56 28.597Zm118.307 68.354a78.977 78.977 0 0 1-3.244 22.378 19.786 19.786 0 0 1 6.963 2.407 22.163 22.163 0 0 1 3.262 2.28c12.547-39.968-4.064-83.318-40.098-104.648a5.574 5.574 0 0 0-5.467.164 5.582 5.582 0 0 0-2.699 4.76 5.473 5.473 0 0 0 2.643 4.742c23.96 14.225 38.647 40.04 38.64 67.917ZM90.02 59.418a37.51 37.51 0 0 1 34.668 23.157 37.55 37.55 0 0 1-8.12 40.91 37.493 37.493 0 0 1-40.88 8.144 37.535 37.535 0 0 1-23.16-34.678c.02-20.713 16.791-37.503 37.492-37.533m0-11.143c-26.866 0-48.646 21.793-48.646 48.676 0 26.883 21.78 48.676 48.646 48.676 26.867 0 48.646-21.793 48.646-48.676a48.673 48.673 0 0 0-14.243-34.425A48.613 48.613 0 0 0 90.02 48.275Z"/><ellipse cx="90.002" cy="12.985" fill="#F58320" rx="12.977" ry="12.985"/><ellipse cx="17.333" cy="138.916" fill="#F58320" rx="12.977" ry="12.985"/><ellipse cx="162.67" cy="138.916" fill="#F58320" rx="12.977" ry="12.985"/><path fill="#F58320" d="M100.774 88.07a10.753 10.753 0 0 0-20.88-3.634 10.763 10.763 0 0 0 4.84 12.99l-3.39 17.197a1.825 1.825 0 0 0 1.823 2.19h13.797a1.824 1.824 0 0 0 1.823-2.19l-3.408-17.198a10.743 10.743 0 0 0 5.395-9.356Z"/></g></svg>
